!!!!SEGMENT: Ver3012-Con_langelico_riso.krn
!!!id: Ver3012
!!!AGN: Madrigal
!!!SCT: Slim (1972)
!!!voices: 4
!!!COM: Philippe Verdelot
!!!OTL: Con l'angelico riso
**kern	**kern	**kern	**kern
*part4	*part3	*part2	*part1
*staff4	*staff3	*staff2	*staff1
*I"Bassus	*I"Tenor	*I"Altus	*I"Superius
*I'B	*I'T	*I'A	*I'S
*clefF4	*clefGv2	*clefGv2	*clefG2
*k[b-]	*k[b-]	*k[b-]	*k[b-]
*F:	*F:	*F:	*F:
*M2/1	*M2/1	*M2/1	*M2/1
*met(C)	*met(C)	*met(C)	*met(C)
=1	=1	=1	=1
1G	1G	1d	1g
[1G	[1B-y	[1d	[1g
=2	=2	=2	=2
2G]	2B-]	2d]	2g]
2D	2A	2d	2f
2G	2B-y	2d	2g
2F	2c	2f	2a
=3	=3	=3	=3
2BB-y	2d	2f	2b-y
2C	4c	2e	4a
.	4B-y	.	4g
1D	4A	2.d	4f
.	4G	.	4e
.	2A	.	4g
.	.	4c	4f
=4	=4	=4	=4
2r	2G	2B-y	2g
2G	2g	2d	2b-y
2F	2a	2f	2cc
2A	2a	2e	2cc
=5	=5	=5	=5
2G	2b-y	2g	2dd
2G	2b-y	2g	2dd
[1B-y	[1b-y	4G	[1dd
.	.	4A	.
.	.	4B-y	.
.	.	4c	.
=6	=6	=6	=6
2B-]	2b-]	4d	2dd]
.	.	4e	.
2F	2a	2f	2cc
2G	2.g	2d	2.b-y
2G	.	2B-y	.
.	4f	.	4a
=7	=7	=7	=7
1C	1e	1c	1g
1D	1d	1A	1f
=8	=8	=8	=8
2r	2r	2r	2r
2D	2A	2d	2f
2G	2B-y	2e	2g
2F	2c	2f	2a
=9	=9	=9	=9
1.E-X	1.e-X	1.g	1.b-y
2F	2c	2f	2a
=10	=10	=10	=10
1C	1c	1e	1g
1D	1A	1d	1f#X
=11	=11	=11	=11
2r	2r	2r	2r
2G	2B-y	2d	2g
2F	2c	2f	2a
2D	2d	2f	2b-y
=12	=12	=12	=12
2.C	2.e-i	2.g	2.cc
4D	4d	4f	4b-y
2F	2c	2f	2a
2G	2B-y	2e	2g
=13	=13	=13	=13
2D	2A	2d	2f
2E	2G	2c	2.g
1D	1A	1d	.
.	.	.	8f#iL
.	.	.	8eJ
.	.	.	2f#i
=14	=14	=14	=14
2G	2G	2B-y	1g
2G	2g	2d	.
2B-y	2g	2d	2r
2A	2f	2c	2cc
=15	=15	=15	=15
1G	1g	1d	2cc
.	.	.	2b-y
1C	1e	[1c	1cc
=16	=16	=16	=16
1.F	2r	2c]	2a
.	1a	2.f	1cc
.	.	4e	.
2G	4g	2d	2b-y
.	4f	.	.
=17	=17	=17	=17
2A	2e	2c	2a
2B-y	2d	1d	2g
1A	1e	.	1a
.	.	2c#i	.
=18	=18	=18	=18
1D	1f	1d	1a
2r	2r	1a	2r
2D	2f	.	2dd
=19	=19	=19	=19
2A	2e	2a	2cc
2B-y	2d	2f	2dd
2G	2d	2g	2b-y
2G	2e	2g	2b-y
=20	=20	=20	=20
1F	1f	1c	1a
2F	2f	2c	2a
2D	2a	2d	2f
=21	=21	=21	=21
2G	2b-y	2d	2g
2F	2a	2d	2a
1G	1g	1d	1b-y
=22	=22	=22	=22
1D	1f	1d	1a
2r	2r	2r	2r
2D	2f	2d	2a
=23	=23	=23	=23
2E	2e	2G	2g
2F	2d	2A	2f
2G	2d	2B-y	2e
2A	2c	2c	2e
=24	=24	=24	=24
2D	2d	2A	2d
2D	2d	2A	2d
2r	2r	2r	2r
2D	2a	2f	2ff
=25	=25	=25	=25
2E	2g	2g	2ee
2F	2f	2a	2dd
2G	2e	2b-y	2dd
2A	2e	2a	2cc
=26	=26	=26	=26
2D	2d	2f	2dd
2D	2d	2f	2dd
1G	1d	1g	1b-y
=27	=27	=27	=27
2D	2d	2f	2a
2G	2d	2g	2b-y
2C	2c	2e	2g
2BB-y	2d	2f	2b-y
=28	=28	=28	=28
2F	2c	2f	2a
2G	2B-y	2d	2g
2C	2c	2e-i	2g
2D	2A	2d	2f#i
=29	=29	=29	=29
1G	2G	2B-y	1g
.	2G	2B-y	.
1G	2r	2r	1g
.	2d	2g	.
=30	=30	=30	=30
2r	1.g	1.b-y	2r
2G	.	.	2dd
[1B-y	.	.	[1dd
.	2d	2f	.
=31	=31	=31	=31
2B-]	1.g	1.b-y	2dd]
2G	.	.	2dd
[1B-y	.	.	[1dd
.	2d	2f	.
=32	=32	=32	=32
2B-]	1f	2b-y	2dd]
2F	.	2a	2cc
2G	1d	2g	2b-y
2D	.	2f	2a
=33	=33	=33	=33
2G	2d	2.g	2b-y
2G	2d	.	2b-y
.	.	4f	.
1C	1c	1e	4cc
.	.	.	4b-y
.	.	.	4a
.	.	.	4g
=34	=34	=34	=34
1D	1A	1d	1f#X
2r	2r	2r	2r
2D	2A	2d	2f#i
=35	=35	=35	=35
2C	2c	2e	2g
2C	2c	2e	2g
1F	1c	1f	1a
=36	=36	=36	=36
0BB-y	0d	0f	0b-y
=37	=37	=37	=37
1F	1c	1f	1a
1C	1e-i	1g	1cc
=38	=38	=38	=38
2G	2d	2.g	1b-y
2G	2B-y	.	.
.	.	4f	.
1C	2.c	1e	2a
.	.	.	[2g
.	4B-y	.	.
=39	=39	=39	=39
1D	1A	1d	4g]
.	.	.	4f#i
.	.	.	4f#i
.	.	.	8eL
.	.	.	8f#iJ
1r	1G	1r	[1gl
=40	=40	=40	=40
0C	0c	0e-X	0g_
=41	=41	=41	=41
1G	1B-y	1d	0g_
1C	1e-i	1c	.
=42	=42	=42	=42
2G	2d	2B-y	0g_
2G	2B-y	2d	.
[1C	[1c	[1e-i	.
=43	=43	=43	=43
1C]	1c]	1e-]	0g_
[1Gl	[1B-yl	[1dl	.
=44	=44	=44	=44
00G]	00B-]	00d]	00g]
==	==	==	==
*-	*-	*-	*-
!!!system-decoration: [*]
!!!RDF**kern: i = editorial accidental
!!!RDF**kern: l = terminal long
!!!ENC: Benjamin Ory
!!!END: 2021/2/5
!!!EED: Benjamin Ory
!!!EEV: 2021/04/29
!!!YEC: Copyright 2021 Benjamin Ory, All Rights Reserved
!!!ONB: Translated from MusicXML on 2021/04/29
